X: 46
M: C|
L: 1/8
K: Bb
|: =e |\
f=efg fgaf | babg gfed |\
efg^f gecB | Acfc BAGF |
babf g^fge | f=efd _edec |\
dBec fdge | dcBA B2z2 H:|

